X:1
T:I Do Love Jesus with All My Heart
T:Daniel Brink Towner
T:I Do Love Jesus with All My Heart
T:Public Domain
T:Public Domain
C:Daniel Brink Towner
Z:Public Domain
%%score ( 1 2 ) ( 3 4 )
L:1/8
M:4/4
K:G
V:1 treble 
V:2 treble 
V:3 bass 
V:4 bass 
V:1
 D | [DG]2 [EG]2 [EG]2 [DG]>[DA] | [DB]2 [Ec]2 [DB]3 [DB] | [Gd]3 [Gd] [Ge][Gd] [DB]>G | %4
w: 1.~“I|love Je- sus with all|my heart” Be- cause|of what He did for me:|
w: 2.~“I|love Je- sus with all|my heart” Be- cause|of what He does for me:|
w: 3.~“I|love Je- sus with all|my heart” Be- cause|of what He is to me:|
w: 4.~Will|love Je- sus with all|your heart? He bore|your sins on Cal- va- ry;|
 [FA]6 z D | [DG]2 [EG]2 [EG]2 [DG]>[DA] | [DB]2 [Ec]2 [DB]3 [DB] | [Gd]3 [Ge] [Gd]2 G2 | %8
w: life for|on the cross He gave,|He died for me|on Cal- va- ry.|
w: depth- less|all my life en- folds,|And guards in love’s|true li- ber- ty.|
w: light, my|my a- bid- ing strength,|My sure de- fense,|my king is He.|
w: pent, be-|Him as Lord con- fess;|Then you shall live|e- ter- nal- ly.|
 [FA]3 G G3 ||"^Refrain" [GB] | [Gd] [Gd]2 [Gd] [Ge] [Gd]2 [GB] | [GB]2 [FA]2 [FA]3 [FA] | %12
w: ||||
w: can- not but|who|died for me; I can- not|but love Him, so|
w: ||||
w: ||||
 [Fc] [Fc]2 [Fc] [Fc] [Fe]2 [Fe] | [Ge]2 [Gd]2 [Gd]3 [GB] | [DG] [DG]2 [EG] [EG]<[EG] [DG]>[DA] | %15
w: |||
w: true is He; I love Him|and ev- er will|His name con- fess, My life, my|
w: |||
w: |||
 [DB]2 [Ec]2 [DB]3 [DB] | [Gd]3 [Ge] [Gd]2 G>[GA] | [GB]2 [FA]2 G3 |] %18
w: |||
w: Lord and my right-|eous- ness! * * *||
w: |||
w: |||
V:2
 D | x8 | x8 | x15/2 G/ | x7 D | x8 | x8 | x6 G2 | x3 G G3 || x | x8 | x8 | x8 | x8 | x8 | x8 | %16
w: do|||His|me||||||||||||
w: do|||His|grace|||I|love Him||||||||
w: do|||My|life,||||||||||||
w: you|||Re-|lieve,||||||||||||
 x6 G3/2 x/ | x4 G3 |] %18
w: ||
w: ||
w: ||
w: ||
V:3
 D, | [G,B,]2 [E,B,]2 [C,C]2 [B,,G,]>[D,F,] | G,2 G,2 G,3 G, | %3
 [G,B,]3 [G,B,] [G,C][G,B,] G,>[G,B,] | [D,D]6 z [D,C] | [G,B,]2 [E,B,]2 [C,C]2 [B,,G,]>[D,F,] | %6
 G,2 G,2 G,3 G, | [G,B,]3 [G,C] [G,B,]2 [B,,D]2 | [D,C]3 [G,,G,B,] [G,,G,B,]3 || G, | %10
 [G,B,] [G,B,]2 [G,B,] [G,C] [G,B,]2 [G,D] | [D,D]2 [D,D]2 [D,D]3 [D,D] | %12
 [D,A,] [D,A,]2 [D,A,] [D,A,] [D,C]2 [D,C] | [G,C]2 [G,B,]2 [G,B,]3 [G,D] | %14
 [G,B,] [G,B,]2 [E,B,] [C,C]<[C,C] [B,,G,]>[D,F,] | G,2 G,2 G,3 G, | %16
 [G,B,]3 [G,C] [G,B,]2 [B,,D]>[C,E] | [D,D]2 [D,C]2 [G,,G,B,]3 |] %18
V:4
 D, | x8 | G,2 G,2 G,3 G, | x6 G,3/2 x/ | x8 | x8 | G,2 G,2 G,3 G, | x8 | x7 || G, | x8 | x8 | x8 | %13
 x8 | x8 | G,2 G,2 G,3 G, | x8 | x7 |] %18

